X: 7473
T: Cnocán An Teampaill
R: jig
M: 6/8
K: Dmixolydian
cBc A2D|FAD GED|cBc A2D|dcA GED|
cBc A2D|D3 GED|cBc AGE|GED D3||
E3 c2E|c2E GED|E3 c2e|dcA GED|
E3 c2E|d2 E c2E|E3 c2e|dcA GED||
A2G FDF|FDF GED|A2G FAD|DFA GED|
A2G D3|FDF GED|A2G FAD|D3 GED||

